X:870
T:Ballintore Fancy, The
R:reel
D:Bothy Band: Old Hag You Have Killed Me
Z:id:hn-reel-870
M:C|
L:1/8
K:G
GB~B2 GBdB | GBBG FGAF | GB~B2 GBdg |1 ecAG FGAF :|2 ecAG FGAc ||
|: BE~E2 BEGA | BE~E2 A2GA | BE~E2 cABG |1 AGFG A2GA :|2 AGFG AcBA ||

